X:1
T:Kajsas brudvals
C:Clara Andermo
C:Erik Ronstrm
R:vals
Z:Erik Ronstrm 17 mars 2008
H:Tillgnad Kajsa Hallberg
M:3/4
L:1/8
K:A
e2|:c4 e2|B4 e2|A3 B cd|e2 a2 g2|f3 g a2|e2 d2 c2|B6-|B3 c de|
c4 e2|B4 e2|A3 B AG|F2 G2 A2|E2 A2 G2|F2 e2 d2|c3 B A2|1 B4 e2:|
[2 B2 F2 G2|A6-|A6|:F4 c2|cd cB AG|E4 B2|dc Bc de|c3 B A2|f3 e dc|
B2 A2 G2|"*"E6|F4 c2|cd cB AG|E4 B2|dc Bc de|c3 B A2|f3 e dc|B2 A2 G2|
F2 e2 d2|c3 B A2|B2 F2 G2|A6-|A6:|
